src/updoot_arrow.svg

<?xml version="1.0" encoding="UTF-8" standalone="no"?>
<!DOCTYPE svg PUBLIC "-//W3C//DTD SVG 1.1//EN" "http://www.w3.org/Graphics/SVG/1.1/DTD/svg11.dtd">
<svg width="100%" height="100%" viewBox="0 0 128 128" version="1.1" xmlns="http://www.w3.org/2000/svg" xmlns:xlink="http://www.w3.org/1999/xlink" xml:space="preserve" xmlns:serif="http://www.serif.com/" style="fill-rule:evenodd;clip-rule:evenodd;stroke-linejoin:round;stroke-miterlimit:2;">
    <path d="M40.924,47.032L40.934,47.012C42.632,43.9 45.287,41.229 47.526,38.519C50.259,35.21 52.793,31.584 55.936,28.65C57.123,27.542 58.317,26.303 59.218,24.953C60.283,23.355 61.447,22.282 63.008,21.241C63.198,21.114 63.57,20.846 63.57,20.846C65.912,19.166 68.977,18.877 71.593,20.088C73.784,21.102 75.377,23.039 75.969,25.332C76.974,26.44 78.255,27.484 79.315,28.463C82.603,31.497 85.817,34.847 88.136,38.712C88.707,39.665 89.426,41.546 89.823,42.649C90.217,42.905 90.606,43.18 90.866,43.408C93.229,45.476 95.652,47.699 97.624,50.142C98.407,50.882 100.208,52.644 100.768,53.662C101.694,55.347 102.015,57.087 101.865,58.777C101.704,60.6 101.042,62.507 99.27,64.279C96.508,67.041 93.346,67.961 89.977,67.828C87.889,67.746 85.637,66.91 83.674,66.608C77.582,65.671 71.366,65.561 65.218,65.903C61.157,66.129 57.136,66.465 53.065,66.465C52.264,66.465 51.475,66.574 50.689,66.721C50.461,66.764 47.968,67.075 47.518,67.092C45.326,67.175 43.703,66.593 42.504,65.698L41.883,66.165C41.706,66.3 41.531,66.427 41.355,66.546C40.176,69.639 37.815,71.079 34.712,71.367C33.925,71.44 30.991,71.807 28.21,68.961C27.691,68.43 25.566,65.315 25.299,64.653C24.401,62.428 24.707,60.718 24.907,59.841C25.63,56.661 27.589,54.884 30.183,54.019C30.886,53.785 31.554,53.919 32.186,53.438C35.059,51.249 38.051,49.216 40.924,47.032Z" style="fill:white;"/>
    <g id="Layer1">
        <path d="M47.481,70.191C48.328,67.883 50.16,65.944 53.05,64.981C55.466,64.176 58.726,63.163 61.542,62.882C63.473,62.688 65.563,63.078 67.524,63.078C68.383,63.078 70.635,62.793 71.941,62.88C73.546,62.987 74.815,63.421 75.66,63.844C76.869,64.448 78.312,65.55 79.341,67.451C80.053,68.766 80.65,71.426 80.74,72.237C80.971,74.316 80.946,76.443 80.946,78.543C80.946,81.149 80.493,83.718 80.294,86.307C79.885,91.619 79.801,96.975 79.521,102.302C79.221,108.003 80.456,113.755 81.387,119.347C81.562,120.394 81.797,121.513 82.102,122.528C82.061,122.393 81.945,122.078 81.945,122.078C81.945,122.078 83.068,125.418 83.068,126.634C83.068,128.912 82.253,130.405 81.474,131.451C80.115,133.274 70.617,133.378 70.617,133.378C70.617,133.378 73.552,134.477 74.596,134.477C73.625,134.477 72.83,134.295 71.893,134.161C71.208,134.063 70.236,134.187 69.565,134.322C65.462,135.142 60.188,134.951 55.947,134.383C55.043,134.39 52.18,134.387 51.115,134.117C49.281,133.652 47.944,132.748 47.016,131.82C45.226,130.03 44.466,127.884 44.705,125.388C44.721,125.217 44.895,124.852 45.161,124.383C45.151,124.212 45.144,124.059 45.144,123.963C45.144,121.531 45.269,119.07 45.153,116.642C44.66,106.28 44.812,95.96 45.725,85.619C45.996,82.55 46.793,79.446 46.513,76.36C46.398,75.097 46.717,71.701 47.324,70.486L47.481,70.191ZM45.552,123.725C46.66,121.891 48.478,119.299 48.478,119.299C48.478,119.299 46.296,121.577 45.988,122.192C45.834,122.5 45.679,123.113 45.552,123.725ZM47.924,78.216L47.941,78.249L47.907,78.174L47.924,78.216ZM47.258,75.876C47.333,76.527 47.508,77.248 47.843,78.019C47.599,77.425 47.426,76.794 47.334,76.138L47.274,75.937L47.258,75.876Z" style="fill:white;"/>
        <path d="M15.748,65.119C18.096,64.494 20.504,64.295 22.911,63.894C29.909,62.727 36.992,62.372 44.055,61.629C57.133,60.252 70.184,59.786 83.312,59.388C89.027,59.215 94.938,58.838 100.617,59.52C103.685,59.888 106.655,60.835 109.75,60.873C110.6,60.788 113.495,60.527 114.701,60.751C116.719,61.125 118.296,62.051 119.465,63.22C122.587,66.343 122.587,71.412 119.465,74.534C117.455,76.545 114.637,77.26 112.052,76.68C111.344,76.769 110.383,76.877 109.958,76.877C106.148,76.877 102.48,75.858 98.711,75.406C93.816,74.819 88.722,75.231 83.797,75.381C71.067,75.766 58.411,76.206 45.73,77.541C38.987,78.25 32.223,78.562 25.541,79.676C23.576,80.004 21.585,79.998 19.684,80.632C17.533,81.348 16.037,81.621 13.796,81.248C12.822,81.085 10.952,80.419 10.952,80.419C7.365,79.023 5.281,75.271 5.991,71.488C6.701,67.705 10.004,64.964 13.853,64.964L14.178,64.964C14.715,64.964 15.24,65.017 15.748,65.119Z" style="fill:white;"/>
        <path d="M6.95,80.758C5.749,80.076 4.675,79.271 4.212,78.416C3.323,76.773 2.58,74.505 3.77,71.333C4.308,69.898 6.844,67.187 6.844,67.187C6.844,67.187 6.413,67.617 6.247,67.819C7.596,66.171 9.053,64.619 10.534,63.085C13.081,60.447 15.402,57.609 17.72,54.775C20.834,50.969 24.384,47.484 27.752,43.906C35.286,35.901 42.883,28.173 50.873,20.628C53.854,17.812 56.979,15.253 60.289,12.834C61.213,12.159 62.84,10.819 64.325,10.039C66.106,9.103 67.898,8.7 69.41,8.7C73.825,8.7 77.41,12.284 77.41,16.7C77.41,20.4 74.892,23.517 71.477,24.428C70.999,24.795 70.083,25.494 69.73,25.752C66.964,27.773 64.35,29.907 61.859,32.26C54.098,39.589 46.721,47.097 39.403,54.872C36.288,58.182 32.984,61.386 30.104,64.906C27.508,68.079 24.896,71.245 22.045,74.198C21.483,74.78 20.924,75.363 20.377,75.957C19.941,79.393 17.287,82.277 13.694,82.847C11.148,83.25 8.691,82.403 6.95,80.758ZM18.767,71.823C18.62,71.452 18.452,71.111 18.281,70.796C17.223,68.842 12.391,66.896 12.391,66.896C12.391,66.896 16.448,69.727 18.767,71.823Z" style="fill:white;"/>
        <path d="M62.984,7.749C65.649,4.929 70.027,4.642 73.024,6.336C75.44,7.701 76.352,9.831 76.525,10.242C76.645,10.525 76.747,10.803 76.833,11.075C77.224,11.608 77.795,12.376 78.498,13.3C79.13,14.13 95.238,32.02 95.738,32.752C100.431,39.618 102.285,41.663 108.141,49.792C109.799,52.095 111.336,54.787 113.936,56.714C114.493,57.127 115.042,57.805 115.546,58.579C118.339,59.826 120.287,62.629 120.287,65.884C120.287,70.468 116.144,74.289 112.733,74.918C109.111,75.587 106.141,74.123 104.312,71.563C103.773,70.807 103.209,69.382 102.823,68.286C99.659,65.525 97.365,62.208 95.158,59.143C89.193,50.862 87.309,48.774 82.529,41.78C82.044,41.071 66.379,23.795 65.767,22.992L64.883,21.818C64.225,21.395 63.561,20.877 62.974,20.257C61.092,18.274 60.246,15.552 60.181,15.119C59.741,12.194 60.797,10.168 61.965,8.775C62.273,8.409 62.61,8.063 62.984,7.749ZM62.327,17.519L62.396,17.736C62.687,18.147 63.036,18.556 63.45,18.957C63.014,18.516 62.639,18.033 62.327,17.519Z" style="fill:white;"/>
    </g>
</svg>

<?xml version="1.0" encoding="UTF-8" standalone="no"?>
<!DOCTYPE svg PUBLIC "-//W3C//DTD SVG 1.1//EN" "http://www.w3.org/Graphics/SVG/1.1/DTD/svg11.dtd">
<svg viewBox="0 0 128 128" xmlns="http://www.w3.org/2000/svg" fillRule="evenodd" clipRule="evenodd" strokeLinejoin="round" strokeMiterlimit="2">
    <path d="M41 47c1.6-3.1 4.3-5.8 6.5-8.5 2.8-3.3 5.3-7 8.4-9.9 1.2-1 2.4-2.3 3.3-3.6a12.7 12.7 0 014.4-4.2A8 8 0 0176 25.3l3.3 3.2a48 48 0 018.8 10.2 28 28 0 011.7 4l1 .7c2.4 2 4.9 4.3 6.8 6.7.8.8 2.6 2.5 3.2 3.6a8.9 8.9 0 01-1.5 10.6c-2.8 2.7-6 3.7-9.3 3.5-2.1 0-4.4-.9-6.3-1.2-6.1-1-12.3-1-18.5-.7-4 .2-8 .6-12.1.6-.8 0-1.6 0-2.4.2l-3.2.4c-2.2 0-3.8-.5-5-1.4l-.6.5-.5.3c-1.2 3.1-3.6 4.6-6.7 4.9-.8 0-3.7.4-6.5-2.4a32 32 0 01-2.9-4.3c-.9-2.3-.6-4-.4-4.9.7-3.1 2.7-5 5.3-5.8.7-.2 1.4 0 2-.6 2.9-2.2 5.9-4.2 8.7-6.4z" fill="#fff"/>
    <g>
        <path d="M47.5 70.2A8.6 8.6 0 0153 65c2.5-.8 5.7-1.8 8.5-2.1 2-.2 4 .2 6 .2.9 0 3.1-.3 4.4-.2 1.6 0 3 .5 3.8 1 1.2.5 2.6 1.6 3.6 3.6.8 1.3 1.4 4 1.4 4.7.3 2.1.2 4.2.2 6.3 0 2.6-.4 5.2-.6 7.8-.4 5.3-.5 10.7-.8 16-.3 5.7 1 11.5 1.9 17l.7 3.2-.2-.4s1.2 3.3 1.2 4.5c0 2.3-.8 3.8-1.6 4.9-1.4 1.8-10.9 1.9-10.9 1.9s3 1 4 1l-2.7-.2c-.7-.1-1.7 0-2.3.1-4.1.8-9.4.7-13.7 0-.9 0-3.7 0-4.8-.2a8.8 8.8 0 01-4-2.3 7.7 7.7 0 01-2.4-6.4l.5-1v-.4-7.4c-.5-10.3-.4-20.6.5-31 .3-3 1-6.2.8-9.2-.1-1.3.2-4.7.8-6l.2-.2zm-2 53.5l3-4.4s-2.2 2.3-2.5 2.9c-.2.3-.3 1-.4 1.5zM48 78.2zm-.6-2.3a7.8 7.8 0 010 .3v-.3z"/>
        <path d="M15.7 65.1c2.4-.6 4.8-.8 7.2-1.2 7-1.2 14-1.5 21.2-2.3a526 526 0 0139.2-2.2c5.7-.2 11.6-.6 17.3.1 3 .4 6 1.3 9.2 1.4.8-.1 3.7-.4 4.9-.1a9 9 0 014.8 2.4 8 8 0 01-7.4 13.5l-2.1.2c-3.9 0-7.5-1-11.3-1.5-4.9-.6-10-.2-14.9 0-12.7.4-25.4.8-38 2.1-6.8.8-13.6 1-20.3 2.2-2 .3-4 .3-5.8 1-2.2.6-3.7 1-5.9.5-1-.1-2.8-.8-2.8-.8A8 8 0 0113.9 65h.3l1.5.1z"/>
        <path d="M7 80.8a7.1 7.1 0 01-2.8-2.4 8 8 0 01-.4-7c.5-1.5 3-4.2 3-4.2l-.6.6a78 78 0 014.3-4.7c2.6-2.7 4.9-5.5 7.2-8.3 3.1-3.8 6.7-7.3 10-10.9C35.4 36 43 28.2 51 20.6c3-2.8 6-5.3 9.4-7.8 1-.6 2.5-2 4-2.8 1.8-.9 3.6-1.3 5.1-1.3a8 8 0 012 15.7l-1.7 1.4c-2.7 2-5.4 4.1-7.8 6.5a538.6 538.6 0 00-22.5 22.6c-3.1 3.3-6.4 6.5-9.3 10a149.8 149.8 0 01-9.7 11A8 8 0 017 80.9zm11.8-9l-.5-1c-1-2-6-3.9-6-3.9s4.1 2.8 6.5 5z"/>
        <path d="M63 7.7c2.6-2.8 7-3 10-1.4a8.2 8.2 0 013.8 4.8l1.7 2.2c.6.8 16.7 18.7 17.2 19.5 4.7 6.8 6.6 8.9 12.4 17 1.7 2.3 3.2 5 5.8 7 .6.3 1.1 1 1.6 1.8a8 8 0 014.8 7.3c0 4.6-4.2 8.4-7.6 9-3.6.7-6.6-.8-8.4-3.3-.5-.8-1-2.2-1.5-3.3-3.1-2.8-5.4-6-7.6-9.2-6-8.2-7.9-10.3-12.7-17.3L65.8 23l-1-1.2-1.8-1.5c-2-2-2.8-4.7-2.8-5.2-.5-3 .6-5 1.8-6.3l1-1zm-.7 9.8l.1.2 1 1.3c-.4-.5-.8-1-1-1.5z"/>
    </g>
</svg>
